X: 1
T: Laride
M: 4/4
L: 1/8
R: barndance
K: Amin
cA B2 (3BcB A2 | Bc (3ded cd e2 | cA B2 (3BcB A2 | ce (3ded ce A2 |
Ae dB ce A2 | (3cBA Bd (3cBA B2 | Ae dB ce A2 | (3cBA Bc (3dcB A2 |
|: cA B2 (3BcB A2 | Bc (3ded cd e2 | cA B2 (3BcB A2 | ce (3ded ce A2 :|
|: Ae dB ce A2 | (3cBA Bd (3cBA B2 | Ae dB ce A2 | (3cBA Bc (3dcB A2 :|
